X: 29087
T: Neilly O'Boyle's Highland
R: hornpipe
M: 4/4
K: Amixolydian
eaa^g e2 ec|dcBA Bcdf|eaa^g e2 ef|1 gfgd BA A2:|2 ~gfgd BAAB||
cAcA defd|cAcA ceae|cAcA dcdf|ecAc BAAB|
c2 cA d2 dB|c2 cA ceae|c2 cA dBdf|ecAc BAAc||

